X: 33640
T: Rambler, The
R: jig
M: 6/8
K: Amajor
ECE E2A|FEC E2e|fec ABc|~B3 BAF|
ECE E2A|FEC E2e|fec ABc|BAG A3:|
|:~e3 Ace|a2a f3|efg fec|~B3 Bcd|
~e3 Ace|a2a f3|efg fec|BAG A3:|

